src/icons/main-clone.svg

<svg enable-background="new 0 0 13 14" viewBox="0 0 13 14" xmlns="http://www.w3.org/2000/svg"><path d="m9.8 2.8h-9.2c-.3 0-.6.3-.6.7v9.8c0 .4.3.7.6.7h9.1c.4 0 .6-.3.6-.7v-9.8c.1-.4-.2-.7-.5-.7zm-.7 9.8h-7.8v-8.4h7.8zm3.3-12.6h-9.2c-.3 0-.6.3-.6.7v1.4h1.3v-.7h7.8v8.4h-.6v1.4h1.3c.4 0 .6-.3.6-.7v-9.8c0-.4-.3-.7-.6-.7z" fill="#4d5969"/></svg>

<?xml version="1.0" encoding="utf-8"?>
<!-- Generator: Adobe Illustrator 20.1.0, SVG Export Plug-In . SVG Version: 6.00 Build 0)  -->
<svg version="1.1" id="Layer_1" xmlns="http://www.w3.org/2000/svg" xmlns:xlink="http://www.w3.org/1999/xlink" x="0px" y="0px"
	 viewBox="0 0 13 14" style="enable-background:new 0 0 13 14;" xml:space="preserve">
<style type="text/css">
	.st0{fill:#4D5969;}
</style>
<title>HDL/Icon/Standard/clone</title>
<desc>Created with Sketch.</desc>
<g id="Colors">
	<g id="Main-Icons" transform="translate(-121.000000, -359.000000)">
		<g id="Clone" transform="translate(100.000000, 341.000000)">
			<g id="HDL_x2F_Icon_x2F_Standard_x2F_clone" transform="translate(21.000000, 18.000000)">
				<path id="Shape" class="st0" d="M9.8,2.8H0.6C0.3,2.8,0,3.1,0,3.5v9.8C0,13.7,0.3,14,0.6,14h9.1c0.4,0,0.6-0.3,0.6-0.7V3.5
					C10.4,3.1,10.1,2.8,9.8,2.8z M9.1,12.6H1.3V4.2h7.8V12.6z M12.4,0H3.2C2.9,0,2.6,0.3,2.6,0.7v1.4h1.3V1.4h7.8v8.4h-0.6v1.4h1.3
					c0.4,0,0.6-0.3,0.6-0.7V0.7C13,0.3,12.7,0,12.4,0z"/>
			</g>
		</g>
	</g>
</g>
</svg>
